Flat-Remix-Dark/apps/scalable/blender.svg

<svg xmlns="http://www.w3.org/2000/svg" width="384pt" height="384pt" version="1.1" viewBox="0 0 384 384">
 <path d="m 140.43897,53.523381 c -8.28384,-0.129196 -15.27507,3.046026 -18.18621,9.093105 l -1.59607,3.327022 c -4.65334,9.671965 2.96734,22.929472 17.08471,29.71839 l 52.17578,25.087542 -148.681883,20.56345 c -15.516737,2.14684 -26.824105,12.437 -25.357295,23.06999 l 0.505793,3.65296 c 1.472436,10.6386 15.151435,17.47248 30.668174,15.32566 l 92.206811,-12.75171 c -0.28099,0.29786 -0.57323,0.57885 -0.85424,0.89357 L 29.714367,293.61402 c -10.413799,11.70638 -12.347069,26.86909 -4.327386,34.00643 l 2.759406,2.45594 c 8.019696,7.13736 22.862042,3.46188 33.275832,-8.23889 l 60.257301,-67.69813 c 8.41872,60.8811 60.7631,106.26798 122.63892,106.34104 68.4456,0 123.93155,-55.10942 123.93155,-123.08856 -0.0506,-40.45251 -20.11386,-78.29739 -53.67069,-101.23246 -2.95611,-3.06289 -6.7215,-5.7998 -11.11067,-7.9073 L 156.13553,57.40678 c -5.29401,-2.545843 -10.72851,-3.810341 -15.69656,-3.883399 z M 244.31844,158.00983 c 43.8414,0 79.38207,35.54066 79.38207,79.38202 0,43.8414 -35.54067,79.38206 -79.38207,79.38206 -43.84135,0 -79.37639,-35.54066 -79.37639,-79.38206 0,-43.84136 35.53504,-79.37641 79.37639,-79.38202 z m 0,28.29653 c -28.21221,0 -51.08549,22.87327 -51.08549,51.08549 0,28.21224 22.87328,51.08551 51.08549,51.08551 28.21225,0 51.08552,-22.87327 51.08552,-51.08551 0,-28.21222 -22.87325,-51.08549 -51.08552,-51.08549 z m 0,0" style="fill:#b8174c"/>
 <g transform="matrix(1.4387118,0,0,1.4387118,-84.230492,-84.23358)">
  <path d="m 156.16016,85.324219 c -5.75782,-0.08984 -10.61719,2.117187 -12.64063,6.320312 l -1.10937,2.3125 c -3.23438,6.722659 2.0625,15.937499 11.875,20.656249 l 36.26562,17.4375 -103.343749,14.29297 c -10.785156,1.49219 -18.644531,8.64453 -17.625,16.03516 l 0.351563,2.53906 c 1.023437,7.39453 10.53125,12.14453 21.316406,10.65234 l 64.08984,-8.86328 c -0.19531,0.20703 -0.39843,0.40234 -0.59375,0.62109 l -75.546871,84.875 c -7.238281,8.13672 -8.582031,18.67579 -3.007813,23.63672 l 1.917969,1.70703 C 83.683594,282.50781 94,279.95312 101.23828,271.82031 l 41.88281,-47.05469 c 5.85157,42.31641 42.23438,73.86329 85.24219,73.91407 47.57422,0 86.14063,-38.30469 86.14063,-85.55469 -0.0352,-28.11719 -13.98047,-54.42188 -37.30469,-70.36328 -2.05469,-2.12891 -4.67188,-4.03125 -7.72266,-5.4961 L 167.07031,88.023438 C 163.39062,86.253906 159.61328,85.375 156.16016,85.324219 Z m 72.20312,72.625001 c 30.47266,0 55.17578,24.70312 55.17578,55.17578 0,30.47266 -24.70312,55.17578 -55.17578,55.17578 -30.47266,0 -55.17187,-24.70312 -55.17187,-55.17578 0,-30.47266 24.69921,-55.17188 55.17187,-55.17578 z m 0,19.66797 c -19.60937,0 -35.50781,15.89843 -35.50781,35.50781 0,19.60937 15.89844,35.50781 35.50781,35.50781 19.60938,0 35.50781,-15.89844 35.50781,-35.50781 0,-19.60938 -15.89843,-35.50781 -35.50781,-35.50781 z m 0,0" style="fill:#f54545"/>
 </g>
</svg>

<svg xmlns="http://www.w3.org/2000/svg" xmlns:xlink="http://www.w3.org/1999/xlink" width="384pt" height="384pt" version="1.1" viewBox="0 0 384 384">
 <defs>
  <filter id="alpha" width="100%" height="100%" x="0%" y="0%" filterUnits="objectBoundingBox">
   <feColorMatrix in="SourceGraphic" type="matrix" values="0 0 0 0 1 0 0 0 0 1 0 0 0 0 1 0 0 0 1 0"/>
  </filter>
  <mask id="mask0">
   <g filter="url(#alpha)">
    <rect width="384" height="384" x="0" y="0" style="fill:rgb(0%,0%,0%);fill-opacity:0.301961"/>
   </g>
  </mask>
  <clipPath id="clip1">
   <rect width="384" height="384" x="0" y="0"/>
  </clipPath>
  <g id="surface5" clip-path="url(#clip1)">
   <path style="fill:rgb(10.196078%,10.196078%,10.196078%)" d="M 146.460938 109.011719 L 146.398438 109.074219 L 172.59375 134.53125 L 190.550781 132.050781 L 154.285156 114.613281 C 151.183594 113.121094 148.535156 111.179688 146.460938 109.011719 Z M 287.476562 150.933594 L 287.402344 151.007812 C 304.652344 167.132812 314.453125 189.597656 314.503906 213.125 C 314.503906 260.375 275.9375 298.679688 228.363281 298.679688 C 185.355469 298.628906 148.972656 267.082031 143.121094 224.761719 L 101.238281 271.820312 C 94 279.953125 83.683594 282.507812 78.109375 277.546875 L 76.210938 275.855469 L 163.550781 360.75 L 329.304688 360.75 C 346.722656 360.75 360.75 346.722656 360.75 329.304688 L 360.75 219.664062 L 359.507812 220.945312 Z M 228.363281 157.949219 C 197.890625 157.949219 173.191406 182.652344 173.191406 213.125 C 173.191406 243.59375 197.890625 268.296875 228.363281 268.296875 C 258.835938 268.300781 283.539062 243.597656 283.539062 213.125 C 283.539062 182.652344 258.835938 157.949219 228.363281 157.949219 Z M 155.339844 166.703125 L 91.25 175.570312 C 83.613281 176.625 76.621094 174.550781 72.824219 170.625 L 72.796875 170.652344 L 115.148438 211.816406 L 154.746094 167.328125 C 154.941406 167.109375 155.144531 166.914062 155.339844 166.707031 Z M 228.363281 177.617188 C 247.972656 177.617188 263.871094 193.511719 263.871094 213.125 C 263.871094 232.734375 247.972656 248.632812 228.363281 248.632812 C 208.753906 248.632812 192.855469 232.734375 192.855469 213.125 C 192.855469 193.511719 208.753906 177.617188 228.363281 177.617188 Z M 228.363281 177.617188"/>
  </g>
 </defs>
 <g>
  <path style="fill:rgb(13.333333%,21.176471%,33.72549%)" d="M 54.695312 23.25 L 329.304688 23.25 C 346.671875 23.25 360.75 37.328125 360.75 54.695312 L 360.75 329.304688 C 360.75 346.671875 346.671875 360.75 329.304688 360.75 L 54.695312 360.75 C 37.328125 360.75 23.25 346.671875 23.25 329.304688 L 23.25 54.695312 C 23.25 37.328125 37.328125 23.25 54.695312 23.25 Z M 54.695312 23.25"/>
  <use mask="url(#mask0)" xlink:href="#surface5"/>
  <path style="fill:rgb(96.470588%,27.843137%,27.843137%)" d="M 156.160156 85.324219 C 150.402344 85.234375 145.542969 87.441406 143.519531 91.644531 L 142.410156 93.957031 C 139.175781 100.679688 144.472656 109.894531 154.285156 114.613281 L 190.550781 132.050781 L 87.207031 146.34375 C 76.421875 147.835938 68.5625 154.988281 69.582031 162.378906 L 69.933594 164.917969 C 70.957031 172.3125 80.464844 177.0625 91.25 175.570312 L 155.339844 166.707031 C 155.144531 166.914062 154.941406 167.109375 154.746094 167.328125 L 79.199219 252.203125 C 71.960938 260.339844 70.617188 270.878906 76.191406 275.839844 L 78.109375 277.546875 C 83.683594 282.507812 94 279.953125 101.238281 271.820312 L 143.121094 224.765625 C 148.972656 267.082031 185.355469 298.628906 228.363281 298.679688 C 275.9375 298.679688 314.503906 260.375 314.503906 213.125 C 314.46875 185.007812 300.523438 158.703125 277.199219 142.761719 C 275.144531 140.632812 272.527344 138.730469 269.476562 137.265625 L 167.070312 88.023438 C 163.390625 86.253906 159.613281 85.375 156.160156 85.324219 Z M 228.363281 157.949219 C 258.835938 157.949219 283.539062 182.652344 283.539062 213.125 C 283.539062 243.597656 258.835938 268.300781 228.363281 268.300781 C 197.890625 268.300781 173.191406 243.597656 173.191406 213.125 C 173.191406 182.652344 197.890625 157.953125 228.363281 157.949219 Z M 228.363281 177.617188 C 208.753906 177.617188 192.855469 193.515625 192.855469 213.125 C 192.855469 232.734375 208.753906 248.632812 228.363281 248.632812 C 247.972656 248.632812 263.871094 232.734375 263.871094 213.125 C 263.871094 193.515625 247.972656 177.617188 228.363281 177.617188 Z M 228.363281 177.617188"/>
 </g>
</svg>
